X: 20783
Q: "Bold and with spirit."
U: p=!crescendo(!
U: P=!crescendo)!
M: C
L: 1/8
K: C
[|!f!\
pF>GA>PB c2c>d | G>G e>d c4 |!p!\
c2BA B2E>E |
c2BA d2G>A | B2B>A HG4 |!f!\
d"_>"B2G c2c>A | G>e e>d {d}c2 z2 |]


